svgs/sharp-regular/hand-middle-finger.svg

<svg xmlns="http://www.w3.org/2000/svg" viewBox="0 0 448 512"><!--! Font Awesome Pro 6.6.0 by @fontawesome - https://fontawesome.com License - https://fontawesome.com/license (Commercial License) Copyright 2024 Fonticons, Inc. --><path d="M184 0L160 0l0 24 0 160-48 0-24 0 0 24 0 50.5L39.9 302.2 32 309.4 32 320l0 38.5c0 54.1 28.7 104.1 75.4 131.3l2.6 1.5c23.2 13.6 49.7 20.7 76.6 20.7L312 512c66.3 0 120-53.7 120-120l0-8 0-96 0-40 0-24-24 0-48 0 0-8 0-24-24 0-48 0 0-168 0-24L264 0 184 0zm56 240l24 0 48 0 0 8 0 24 24 0 48 0 0 16 0 96 0 8c0 39.8-32.2 72-72 72l-125.4 0c-18.4 0-36.5-4.9-52.4-14.2l-11.7 20 11.7-20-2.6-1.5C99.6 429.7 80 395.5 80 358.5l0-27.9 24-21.8 0 35.2 0 16 32 0 0-16 0-64.3 0-10.6 0-5.1 0-16 0-16 48 0 24 0 0-24 0-160 32 0 0 168 0 24z"/></svg>

<svg xmlns="http://www.w3.org/2000/svg" viewBox="0 0 448 512"><!--! Font Awesome Pro 6.4.0 by @fontawesome - https://fontawesome.com License - https://fontawesome.com/license (Commercial License) Copyright 2023 Fonticons, Inc. --><path d="M184 0H160V24 184H112 88v24 50.5L39.9 302.2 32 309.4V320v38.5c0 54.1 28.7 104.1 75.4 131.3l2.6 1.5c23.2 13.6 49.7 20.7 76.6 20.7H312c66.3 0 120-53.7 120-120v-8V288 248 224H408 360v-8V192H336 288V24 0H264 184zm56 240h24 48v8 24h24 48v16 96 8c0 39.8-32.2 72-72 72H186.6c-18.4 0-36.5-4.9-52.4-14.2l-11.7 20 11.7-20-2.6-1.5C99.6 429.7 80 395.5 80 358.5V330.6l24-21.8V344v16h32V344 279.7 269.1 264 248 232h48 24V208 48h32V216v24z"/></svg>
